!!!!SEGMENT: pl-gd--ms-4012--003-001_marenzio-luca--missa-super-iniquos-odio-habui-kyrie-eleison.krn
!!!cenid: 16xx:1749
!!!COM: Marenzio, Luca
!!!COM-rismID: pe30003955
!!!CDT: ~1553-1599/08/22
!!!CNT: Italian
!!!OPR: Missa super Iniquos odio habui
!!!OTL: Kyrie eleison
!!!OMV: 001
!!!PDT:
!!!AGN: Sacred; Mass section
!!!YEC: Copyright 2022 Narodowy Instytut Fryderyka Chopina (https://polishscores.org)
!!!YEM: License CC-BY-4.0 (https://creativecommons.org/licenses/by/4.0)
!!!SMS-siglum: PL-GD
!!!SMS-shelfmark: Ms 4012
!!!SMS-variant:
!!!SMS-altvar:
!!!SMS-shelfwork: 003-001 M
!!!NIFC-rismSourceID: 305000112
!!!NIFC-rismChildID: 305000382
!!!NIFC-islandoraID: pl-gd:8969
!!!URL-pdf-islandora: https://repozytorium.nifc.pl/islandora/object/pl-gd%3A8969/datastream/PDF/view#page=172
!!!URL-scan: https://polish.musicsources.pl/pl/lokalizacje/galeria/rekopisy/5111 @EN{Scan on Polish Music Sources Website} @PL{Skany w portalu Dziedzictwo Muzyki Polskiej w otwartym dostępie}
!!!IIIF: https://repozytorium.nifc.pl/islandora/object/pl-gd%3A8969/datastream/IIIF/view#page=172
!!!ONB-nifc: UWAGA: partia [bassus pro organo], 157v-158r, skan 0172. Części: 1. Kyrie eleison, 2. Gloria/Et in terra pax
!!!AIN: 2 organ
!!!key: F
**kern	**kern
*part2	*part1
*staff2	*staff1
*I"Organo	*I"Bassus pro organo
*	*I'org
*Iorgan	*Iorgan
*ICklav	*ICklav
*clefF4	*clefC4
*k[b-]	*k[b-]
*F:	*F:
*M2/1	*M2/1
*met(C)	*met(C)
=1-	=1-
*xywh-#172:1194,5161,4784,2003	*xywh-#172:1194,5161,4784,2003
!	!LO:TX:b:t=Kÿrie eleÿson &colon;&c&colon;:color=red
0r	0f
=2-	=2-
0r	1d
.	1c
=3-	=3-
!LO:TX:t=P:problem:kreska pseudotaktowa	!LO:TX:t=P:problem:kreska pseudotaktowa
0r	0F
=4-	=4-
*	*clefF4
0r	1G
.	0F
=5-	=5-
0r	.
.	1D
=6-	=6-
!LO:TX:t=P:problem:kreska pseudotaktowa	!
0r	1.C
!	!LO:TX:t=P:problem:kreska pseudotaktowa
.	2GG/
=7-	=7-
0r	2.AA/
.	4BB-/
.	1C
=8-	=8-
0F	0FF
=9-	=9-
!LO:TX:t=P:problem:kreska pseudotaktowa	!LO:TX:t=P:problem:kreska pseudotaktowa
0D	0r
=10-	=10-
1C	0r
2F\	.
2G\	.
=11-	=11-
2C/	4r
.	4C/
2r	2D/
4r	2GG/
4G\	.
2A\	2r
=12-	=12-
2D/	4r
.	2D/
2r	.
.	4G\
4r	2F\
4F\	.
!LO:TX:t=P:problem:kreska pseudotaktowa	!LO:TX:t=P:problem:kreska pseudotaktowa
2D/	2r
=13-	=13-
2C/	4r
.	4C/
2r	2D/
2r	2GG/
1GG/	1G\
=14-	=14-
.	.
2GG/	2G\
0C	0C
=15-	=15-
.	.
!LO:TX:t=P:problem:kreska pseudotaktowa	!LO:TX:t=P:problem:kreska pseudotaktowa
1FF	1F
=16-	=16-
1C	1C
1F	1FF
=17-	=17-
!LO:TX:t=P:problem:kreska pseudotaktowa	!LO:TX:t=P:problem:kreska pseudotaktowa
0FF	0F
=18-	=18-
!LO:TX:t=P:problem:kreska pseudotaktowa	!LO:TX:t=P:problem:kreska pseudotaktowa
0C	0C
=19-	=19-
!LO:TX:t=P:problem:kreska pseudotaktowa	!LO:TX:t=P:problem:kreska pseudotaktowa
00F;;	00FF;;
!LO:PB:g=original	!LO:PB:g=original
=20-	=20-
*xywh-#172:5940,468,4723,935	*xywh-#172:5940,468,4723,935
.	.
=21-	=21-
*met(C)	*met(C)
!	!LO:TX:b:t=CHRISTE ELEŸ son&colon;:color=red
0r	0F
=22-	=22-
0r	1G
.	0F
=23-	=23-
!LO:TX:t=P:problem:kreska pseudotaktowa	!
0r	.
!	!LO:TX:t=P:problem:kreska pseudotaktowa
.	1D
=24-	=24-
1r	2C/
.	2C/
0F	0FF
=25-	=25-
.	.
1G	1r
=26-	=26-
!	!LO:N:vis=0
1A	1r
!	!LO:TX:t=P:problem:kreska pseudotaktowa
2.F\	1r
!LO:TX:t=P:problem:kreska pseudotaktowa	!
4E\	.
=27-	=27-
1D	1r
1C	2r
.	2C/
=28-	=28-
2r	4F\
.	4A\
4r	2G\
4GG/	.
4C/	2C/
!LO:TX:a:t=P:problem:♭ above	!
4D-X\	.
2C/	4r
.	4D/
=29-	=29-
2GG/	4G\
.	4B-\
4r	2A\
4AA/	.
4Dny/	2D/
4BB-/	.
!LO:TX:t=P:problem:kreska pseudotaktowa	!
2F\	4r
!	!LO:TX:t=P:problem:kreska pseudotaktowa
.	4FF/
=30-	=30-
2BB-/	4BB-/
.	4GG/
2r	2D/
1r	1GG
=31-	=31-
0C	0C
=32-	=32-
1C	1E
!LO:TX:t=P:problem:kreska pseudotaktowa	!LO:TX:t=P:problem:kreska pseudotaktowa
1FF	1F
=33-	=33-
0C	0C
=34-	=34-
!LO:TX:t=P:problem:kreska pseudotaktowa	!LO:TX:t=P:problem:kreska pseudotaktowa
00FF;;	00F;;
=35-	=35-
!	!LO:TX:b:t=3.
.	.
*clefF4	*clefF4
=36-	=36-
*k[b-]	*k[b-]
*met(c)	*met(c)
!	!LO:TX:b:t=Kÿrie eleÿson.:color=red
0r	2F\
.	4C/
.	2D/
.	4BB-/
.	2C/
=37-	=37-
2F\	2FF/
4C/	2r
2D/	.
.	1r
4BB-/	.
2C/	.
=38-	=38-
2FF/	2F\
2r	4G\
.	2A\
!LO:TX:t=P:problem:kreska pseudotaktowa	!
1r	.
.	4F\
!	!LO:TX:t=P:problem:kreska pseudotaktowa
.	2G\
!LO:SIC:v:t=custos C	!LO:SIC:v:t=custos C
!LO:LB:g=original	!LO:LB:g=original
=39-	=39-
*xywh-#172:5968,1250,4762,787	*xywh-#172:5968,1250,4762,787
2C/	2C/
4D/	2r
2E-X\	.
.	1r
4C/	.
2D/	.
=40-	=40-
2GG/	2G\
2r	4A\
.	2B-\
1r	.
.	4E-X\
.	2F\
=41-	=41-
2B-\	2BB-/
!	!LO:TX:t=P:problem:kreska pseudotaktowa
4G\	2r
!LO:TX:t=P:problem:kreska pseudotaktowa	!
(4A\	.
4A\)	1r
4F\	.
2G\	.
=42-	=42-
2C/	2C/
2r	4AA/
.	2BB-/
1r	.
.	4GG/
.	2D/
=43-	=43-
2G\	2GG/
4E\	2r
2F\	.
!	!LO:TX:t=P:problem:kreska pseudotaktowa
.	0r
4C/	.
2G\	.
=44-	=44-
!LO:TX:t=P:problem:kreska pseudotaktowa	!
1C	.
2C/	2C/
4F\	4AA/
2BB-/	2BB-/
=45-	=45-
.	.
4F\	4FF/
2C/	2C/
2F\	2FF/
2C/	2C/
=46-	=46-
4AA/	4F\
2BB-/	2BB-/
4FF/	4F\
1C	1C
=47-	=47-
!LO:N:vis=00	!LO:N:vis=00
0FF;;	0F;;
=	=
*-	*-
!!!system-decoration: [(s1,s2)]
!!!ENC: Filip Voros
!!!END: 2022-06-17
!!!ENC: Urszula Świątek
!!!END: 2022-07-27
!!!ENC-iiif: Jolanta Bujas-Poniatowska
!!!END-iiif: 2022-09-16
